Newaita-dark/.DP/32/network-wired-secure.svg

<?xml version="1.0" encoding="UTF-8"?>
<svg xmlns="http://www.w3.org/2000/svg" xmlns:xlink="http://www.w3.org/1999/xlink" width="32pt" height="32pt" viewBox="0 0 32 32" version="1.1">
<g id="surface1">
<path style=" stroke:none;fill-rule:nonzero;fill:rgb(74.117649%,74.117649%,74.117649%);fill-opacity:1;" d="M 5.292969 4.878906 C 3.828125 4.878906 2.644531 6.0625 2.644531 7.527344 L 2.644531 22.082031 C 2.644531 23.546875 3.828125 24.726562 5.292969 24.726562 L 6.613281 24.726562 L 6.613281 24.832031 C 6.613281 26.238281 7.796875 27.371094 9.261719 27.371094 L 17.859375 27.371094 L 17.859375 24.726562 L 10.585938 24.726562 C 9.851562 24.726562 9.261719 24.136719 9.261719 23.402344 L 9.261719 22.082031 L 6.613281 22.082031 C 5.882812 22.082031 5.292969 21.488281 5.292969 20.757812 L 5.292969 8.851562 C 5.292969 8.117188 5.882812 7.527344 6.613281 7.527344 L 25.136719 7.527344 C 25.871094 7.527344 26.460938 8.117188 26.460938 8.851562 L 26.460938 16.871094 C 26.667969 16.816406 26.890625 16.789062 27.121094 16.789062 L 29.105469 16.789062 L 29.105469 7.527344 C 29.105469 6.0625 27.925781 4.878906 26.460938 4.878906 Z M 5.292969 4.878906 "/>
<path style=" stroke:none;fill-rule:nonzero;fill:rgb(100%,65.490198%,14.901961%);fill-opacity:1;" d="M 14.554688 7.527344 L 14.554688 8.851562 C 14.554688 9.582031 15.132812 10.171875 15.851562 10.171875 L 15.902344 10.171875 C 16.621094 10.171875 17.199219 9.582031 17.199219 8.851562 L 17.199219 7.527344 Z M 14.554688 7.527344 "/>
<path style=" stroke:none;fill-rule:nonzero;fill:rgb(100%,65.490198%,14.901961%);fill-opacity:1;" d="M 10.585938 7.527344 L 10.585938 8.851562 C 10.585938 9.582031 11.164062 10.171875 11.878906 10.171875 L 11.933594 10.171875 C 12.652344 10.171875 13.230469 9.582031 13.230469 8.851562 L 13.230469 7.527344 Z M 10.585938 7.527344 "/>
<path style=" stroke:none;fill-rule:nonzero;fill:rgb(100%,65.490198%,14.901961%);fill-opacity:1;" d="M 6.613281 7.527344 L 6.613281 8.851562 C 6.613281 9.582031 7.195312 10.171875 7.910156 10.171875 L 7.964844 10.171875 C 8.683594 10.171875 9.261719 9.582031 9.261719 8.851562 L 9.261719 7.527344 Z M 6.613281 7.527344 "/>
<path style=" stroke:none;fill-rule:nonzero;fill:rgb(100%,65.490198%,14.901961%);fill-opacity:1;" d="M 18.523438 7.527344 L 18.523438 8.851562 C 18.523438 9.582031 19.101562 10.171875 19.820312 10.171875 L 19.871094 10.171875 C 20.589844 10.171875 21.167969 9.582031 21.167969 8.851562 L 21.167969 7.527344 Z M 18.523438 7.527344 "/>
<path style=" stroke:none;fill-rule:nonzero;fill:rgb(100%,65.490198%,14.901961%);fill-opacity:1;" d="M 22.492188 7.527344 L 22.492188 8.851562 C 22.492188 9.582031 23.070312 10.171875 23.789062 10.171875 L 23.839844 10.171875 C 24.558594 10.171875 25.136719 9.582031 25.136719 8.851562 L 25.136719 7.527344 Z M 22.492188 7.527344 "/>
<path style=" stroke:none;fill-rule:nonzero;fill:rgb(40.000001%,73.333335%,41.568628%);fill-opacity:1;" d="M 23.488281 18.828125 C 22.753906 18.828125 22.164062 19.417969 22.164062 20.148438 L 22.164062 24.121094 C 21.433594 24.121094 20.84375 24.710938 20.84375 25.441406 L 20.84375 28.089844 C 20.84375 28.820312 21.433594 29.410156 22.164062 29.410156 L 28.121094 29.410156 C 28.851562 29.410156 29.441406 28.820312 29.441406 28.089844 L 29.441406 25.441406 C 29.441406 24.710938 28.851562 24.121094 28.121094 24.121094 L 28.121094 20.148438 C 28.121094 19.417969 27.527344 18.828125 26.796875 18.828125 Z M 24.148438 20.148438 L 26.132812 20.148438 C 26.5 20.148438 26.796875 20.445312 26.796875 20.8125 L 26.796875 24.121094 L 23.488281 24.121094 L 23.488281 20.8125 C 23.488281 20.445312 23.785156 20.148438 24.148438 20.148438 Z M 25.140625 25.441406 C 25.691406 25.441406 26.132812 25.886719 26.132812 26.433594 C 26.132812 26.871094 25.855469 27.238281 25.46875 27.371094 C 25.472656 27.390625 25.472656 27.410156 25.472656 27.425781 L 25.472656 28.417969 C 25.472656 28.601562 25.324219 28.75 25.140625 28.75 C 24.960938 28.75 24.8125 28.601562 24.8125 28.417969 L 24.8125 27.425781 C 24.8125 27.410156 24.8125 27.390625 24.816406 27.371094 C 24.425781 27.238281 24.148438 26.871094 24.148438 26.433594 C 24.148438 25.886719 24.59375 25.441406 25.140625 25.441406 Z M 25.140625 25.441406 "/>
</g>
</svg>

<svg xmlns="http://www.w3.org/2000/svg" width="32pt" height="32pt" viewBox="0 0 32 32"><path d="M5.293 4.879a2.646 2.646 0 0 0-2.648 2.648v14.555a2.642 2.642 0 0 0 2.648 2.645h1.32v.105c0 1.406 1.184 2.54 2.649 2.54h8.597v-2.645h-7.273a1.32 1.32 0 0 1-1.324-1.325v-1.32H6.613c-.73 0-1.32-.594-1.32-1.324V8.852c0-.735.59-1.325 1.32-1.325h18.524c.734 0 1.324.59 1.324 1.325v8.02a2.59 2.59 0 0 1 .66-.083h1.984V7.527a2.642 2.642 0 0 0-2.644-2.648zm0 0" fill="#bdbdbd"/><path d="M14.555 7.527v1.325c0 .73.578 1.32 1.297 1.32h.05c.72 0 1.297-.59 1.297-1.32V7.527zm0 0M10.586 7.527v1.325c0 .73.578 1.32 1.293 1.32h.055c.718 0 1.296-.59 1.296-1.32V7.527zm0 0M6.613 7.527v1.325c0 .73.582 1.32 1.297 1.32h.055c.719 0 1.297-.59 1.297-1.32V7.527zm0 0M18.523 7.527v1.325c0 .73.579 1.32 1.297 1.32h.051c.719 0 1.297-.59 1.297-1.32V7.527zm0 0M22.492 7.527v1.325c0 .73.578 1.32 1.297 1.32h.05c.72 0 1.298-.59 1.298-1.32V7.527zm0 0" fill="#ffa726"/><path d="M23.488 18.828a1.32 1.32 0 0 0-1.324 1.32v3.973c-.73 0-1.32.59-1.32 1.32v2.649c0 .73.59 1.32 1.32 1.32h5.957c.73 0 1.32-.59 1.32-1.32V25.44c0-.73-.59-1.32-1.32-1.32v-3.973c0-.73-.594-1.32-1.324-1.32zm.66 1.32h1.985c.367 0 .664.297.664.665v3.308h-3.309v-3.308c0-.368.297-.665.66-.665zm.993 5.293c.55 0 .992.446.992.993a.987.987 0 0 1-.664.937c.004.02.004.04.004.055v.992a.332.332 0 0 1-.332.332.33.33 0 0 1-.328-.332v-.992c0-.016 0-.035.003-.055a.994.994 0 0 1 .324-1.93zm0 0" fill="#66bb6a"/></svg>
